X: 8
T: The Green Fields Of Rossbeigh
R: reel
M: 4/4
L: 1/8
K: Edor
|: BE E2 BAFB | ABde fded | BE E2 BAFA | BFAF E2 FA |
B3d BAFB | ABde fded | BE E2 BAFA | BFAF E2 FA :|
|: (3B^cd ef gfge | dB B2 dB A2 | (3B^cd ef gfge | dBAF E3f |
g3a gfed | f3g fedB | ABde f3e | dBAF E4 :|


Tune 322	Setting 322

